X: 4067
T: DELVIN SIDE
R: Reel.
%R: reel
N: This is version 1, for ABC software that doesn't understand voice overlays.
B: James Kerr "Merry Melodies" v.4 p.10 #67
Z: 2016 John Chambers <jc:trillian.mit.edu>
M: C|
L: 1/8
K: D
|:\
DCDE FEFA | dFAF dFA \
[1 F | E/E/E (ED) EFGA | (3(Bcd) (AF) FEEF :|\
[2 g | faef deBd | AFEF D2A2 ||
|:\
defg afdg | (3(faf) (df) a2 (gf) |\
[1 e^def gfgf | (3(efg) (fa) g2 (fe) :|\
[2 gbef deBd | AFEF D2d2 |]
